X:941
T:Wellington's Hornpipe. Roose.0941
T:Roxburgh Castle,aka. Roose.0941
B:J.Roose, Manchester 1850
M:C|
L:1/8
Q:1/4=120
Z:Village Music Project.Peter Kanssen.2019
K:A
E2 | A2Ac ecAc | d2df ecAc | d2fd c2ec | BABc BdcB |
A2Ac ecAc | d2df ecAc | egae faed | c2A2 A2 :|
|:((3efg) | aece Aece | aece Aece | dfdf cece | BABc BdcB |
A2Ac ecAc | d2df ecAc | egae faed | c2A2 A2 :|

